svg/fluentui-system-icons/ic_fluent_align_distribute_right_16_filled.svg

<svg width="16" height="16" viewBox="0 0 16 16" fill="none" xmlns="http://www.w3.org/2000/svg">
<path d="M15 1.5C15 1.22386 14.7761 1 14.5 1C14.2239 1 14 1.22386 14 1.5L14 14.5C14 14.7761 14.2239 15 14.5 15C14.7761 15 15 14.7761 15 14.5V1.5ZM8 1.5C8 1.22386 7.77614 1 7.5 1C7.22386 1 7 1.22386 7 1.5L7 14.5C7 14.7761 7.22386 15 7.5 15C7.77614 15 8 14.7761 8 14.5L8 1.5ZM3.5 13C2.67157 13 2 12.3284 2 11.5L2 4.5C2 3.67157 2.67157 3 3.5 3H4.5C5.32843 3 6 3.67157 6 4.5L6 11.5C6 12.3284 5.32843 13 4.5 13H3.5ZM9 9.5C9 10.3284 9.67157 11 10.5 11H11.5C12.3284 11 13 10.3284 13 9.5V6.5C13 5.67157 12.3284 5 11.5 5H10.5C9.67157 5 9 5.67157 9 6.5L9 9.5Z" fill="#212121"/>
</svg>

<svg xmlns="http://www.w3.org/2000/svg" width="16" height="16"><path d="M15 1.5a.5.5 0 0 0-1 0v13a.5.5 0 0 0 1 0v-13Zm-7 0a.5.5 0 0 0-1 0v13a.5.5 0 0 0 1 0v-13ZM3.5 13A1.5 1.5 0 0 1 2 11.5v-7A1.5 1.5 0 0 1 3.5 3h1A1.5 1.5 0 0 1 6 4.5v7A1.5 1.5 0 0 1 4.5 13h-1ZM9 9.5a1.5 1.5 0 0 0 1.5 1.5h1A1.5 1.5 0 0 0 13 9.5v-3A1.5 1.5 0 0 0 11.5 5h-1A1.5 1.5 0 0 0 9 6.5v3Z"/></svg>
